X: 24885
T: Magnus Hendrichson's
R: waltz
M: 3/4
K: Amajor
|:B/ A>F|E2 E>A a>e|f2 f>e a>e|f2 f<a f>e|B2 c>e (3cBA|
E2 E>A a>g|f2- f>g a>f|e2 c>e (3BcB|A2 A3/2:|
|:B/ (3cBA|d>c d>e f2|f>e a2 c2|B3 c B>A|c e2 c B>A|
d>c d>e f>e|a>e f>e (3cBA|c e2 c (3BcB|1 A2 A3/2:|2 A6||

